X: 275
M:C
L:1/8
K:A
e | A<Aag fe a2 | A<A a2 cAAc | A<A ag fe =g2 | B<B =g2 BGG :|
a | A<AeA c2 Aa | A<A eA cAAa | A<AeA c2 Ac | B<B =g2 BGGa |


